src/icons/aws-guard-duty.svg

<?xml version="1.0" encoding="UTF-8"?>
<svg xmlns="http://www.w3.org/2000/svg" xmlns:xlink="http://www.w3.org/1999/xlink" width="32" height="32" viewBox="0 0 32 32" version="1.1">
<defs>
<linearGradient id="linear0" gradientUnits="userSpaceOnUse" x1="0" y1="1" x2="1" y2="0" gradientTransform="matrix(32,0,0,32,0,0)">
<stop offset="0" style="stop-color:rgb(74.117649%,3.137255%,8.627451%);stop-opacity:1;"/>
<stop offset="1" style="stop-color:rgb(100%,32.156864%,32.156864%);stop-opacity:1;"/>
</linearGradient>
</defs>
<g id="surface1">
<rect x="0" y="0" width="32" height="32" style="fill:url(#linear0);stroke:none;"/>
<path style=" stroke:none;fill-rule:evenodd;fill:rgb(100%,100%,100%);fill-opacity:1;" d="M 18 17.175781 C 17.984375 18.117188 17.695312 19.214844 16.5 19.453125 L 16.5 12.914062 L 18 13.539062 Z M 14 17.167969 L 14 13.539062 L 15.5 12.914062 L 15.5 19.445312 C 14.121094 19.152344 14 17.664062 14 17.167969 Z M 15.808594 11.703125 L 13.308594 12.742188 C 13.121094 12.820312 13 13.003906 13 13.203125 L 13 17.167969 C 13 18.707031 13.785156 20.5 16 20.5 C 17.84375 20.5 18.964844 19.265625 19 17.183594 L 19 13.203125 C 19 13.003906 18.878906 12.820312 18.691406 12.742188 L 16.191406 11.703125 C 16.070312 11.652344 15.929688 11.652344 15.808594 11.703125 Z M 20 17.183594 C 20 17.359375 19.953125 21.5 16 21.5 C 12.0625 21.5 12 17.347656 12 17.167969 L 12 12.203125 L 16 10.542969 L 20 12.203125 Z M 20.691406 11.40625 L 16.191406 9.539062 C 16.070312 9.488281 15.929688 9.488281 15.808594 9.539062 L 11.308594 11.40625 C 11.121094 11.484375 11 11.667969 11 11.871094 L 11 17.167969 C 11 19.015625 12.046875 22.5 16 22.5 C 19.953125 22.5 21 19.023438 21 17.183594 L 21 11.871094 C 21 11.667969 20.878906 11.484375 20.691406 11.40625 Z M 26 17.558594 L 24.785156 17.488281 C 24.550781 17.472656 24.324219 17.640625 24.269531 17.878906 C 24.058594 18.816406 23.691406 19.703125 23.175781 20.519531 C 23.046875 20.726562 23.082031 21 23.265625 21.160156 L 24.171875 21.96875 L 21.96875 24.171875 L 21.164062 23.269531 C 21 23.085938 20.730469 23.046875 20.523438 23.179688 C 19.707031 23.695312 18.816406 24.0625 17.878906 24.277344 C 17.636719 24.328125 17.472656 24.546875 17.488281 24.792969 L 17.558594 26 L 14.441406 26 L 14.511719 24.789062 C 14.527344 24.546875 14.363281 24.328125 14.121094 24.273438 C 13.183594 24.0625 12.296875 23.695312 11.476562 23.175781 C 11.273438 23.046875 11 23.082031 10.839844 23.265625 L 10.03125 24.171875 L 7.828125 21.96875 L 8.734375 21.164062 C 8.914062 21 8.953125 20.730469 8.824219 20.523438 C 8.308594 19.707031 7.941406 18.816406 7.726562 17.878906 C 7.675781 17.640625 7.4375 17.472656 7.210938 17.488281 L 6 17.558594 L 6 14.441406 L 7.214844 14.511719 C 7.4375 14.519531 7.675781 14.363281 7.730469 14.125 C 7.945312 13.1875 8.3125 12.296875 8.828125 11.484375 C 8.957031 11.277344 8.921875 11.003906 8.738281 10.84375 L 7.828125 10.03125 L 10.03125 7.828125 L 10.84375 8.738281 C 11.003906 8.921875 11.277344 8.957031 11.480469 8.828125 C 12.296875 8.3125 13.183594 7.945312 14.121094 7.734375 C 14.363281 7.679688 14.527344 7.460938 14.511719 7.21875 L 14.441406 6 L 17.558594 6 L 17.488281 7.21875 C 17.472656 7.464844 17.636719 7.679688 17.878906 7.734375 C 18.8125 7.949219 19.703125 8.316406 20.515625 8.828125 C 20.722656 8.960938 20.992188 8.921875 21.15625 8.738281 L 21.96875 7.828125 L 24.171875 10.03125 L 23.261719 10.839844 C 23.082031 11.003906 23.042969 11.273438 23.171875 11.480469 C 23.6875 12.296875 24.058594 13.183594 24.269531 14.125 C 24.324219 14.363281 24.550781 14.519531 24.785156 14.511719 L 26 14.441406 Z M 26.84375 13.550781 C 26.742188 13.457031 26.605469 13.40625 26.472656 13.414062 L 25.140625 13.488281 C 24.933594 12.726562 24.628906 12 24.238281 11.3125 L 25.234375 10.425781 C 25.335938 10.332031 25.398438 10.203125 25.402344 10.066406 C 25.40625 9.925781 25.351562 9.792969 25.253906 9.699219 L 22.300781 6.746094 C 22.207031 6.648438 22.074219 6.59375 21.933594 6.601562 C 21.796875 6.605469 21.667969 6.664062 21.574219 6.765625 L 20.683594 7.765625 C 20 7.375 19.269531 7.070312 18.511719 6.863281 L 18.585938 5.527344 C 18.59375 5.390625 18.546875 5.257812 18.449219 5.15625 C 18.355469 5.054688 18.222656 5 18.085938 5 L 13.914062 5 C 13.777344 5 13.644531 5.054688 13.550781 5.15625 C 13.453125 5.257812 13.40625 5.390625 13.414062 5.527344 L 13.488281 6.863281 C 12.730469 7.070312 12 7.371094 11.3125 7.761719 L 10.425781 6.765625 C 10.332031 6.664062 10.203125 6.605469 10.066406 6.601562 C 9.929688 6.59375 9.792969 6.648438 9.699219 6.746094 L 6.746094 9.699219 C 6.648438 9.792969 6.59375 9.925781 6.597656 10.066406 C 6.601562 10.203125 6.664062 10.332031 6.765625 10.425781 L 7.761719 11.3125 C 7.371094 12 7.070312 12.730469 6.859375 13.488281 L 5.527344 13.414062 C 5.390625 13.40625 5.257812 13.457031 5.15625 13.550781 C 5.054688 13.644531 5 13.777344 5 13.914062 L 5 18.085938 C 5 18.222656 5.054688 18.355469 5.15625 18.449219 C 5.257812 18.542969 5.394531 18.59375 5.527344 18.585938 L 6.855469 18.511719 C 7.0625 19.273438 7.367188 20.003906 7.757812 20.691406 L 6.765625 21.574219 C 6.664062 21.667969 6.601562 21.796875 6.597656 21.933594 C 6.59375 22.074219 6.648438 22.207031 6.746094 22.304688 L 9.699219 25.253906 C 9.792969 25.351562 9.929688 25.410156 10.066406 25.402344 C 10.203125 25.394531 10.332031 25.335938 10.425781 25.234375 L 11.308594 24.242188 C 11.996094 24.636719 12.726562 24.9375 13.488281 25.148438 L 13.414062 26.472656 C 13.40625 26.609375 13.453125 26.742188 13.550781 26.84375 C 13.644531 26.945312 13.777344 27 13.914062 27 L 18.085938 27 C 18.222656 27 18.355469 26.945312 18.449219 26.84375 C 18.546875 26.742188 18.59375 26.609375 18.585938 26.472656 L 18.511719 25.148438 C 19.273438 24.9375 20.003906 24.636719 20.691406 24.242188 L 21.574219 25.234375 C 21.667969 25.335938 21.796875 25.394531 21.933594 25.402344 C 22.074219 25.410156 22.207031 25.351562 22.300781 25.253906 L 25.253906 22.304688 C 25.351562 22.207031 25.40625 22.074219 25.402344 21.933594 C 25.398438 21.796875 25.335938 21.667969 25.234375 21.578125 L 24.238281 20.691406 C 24.632812 20.003906 24.933594 19.273438 25.140625 18.511719 L 26.472656 18.585938 C 26.605469 18.59375 26.742188 18.542969 26.84375 18.449219 C 26.945312 18.355469 27 18.222656 27 18.085938 L 27 13.914062 C 27 13.777344 26.945312 13.644531 26.84375 13.550781 Z M 26.84375 13.550781 "/>
</g>
</svg>

<svg role="img" viewBox="0 0 32 32" xmlns="http://www.w3.org/2000/svg" xmlns:xlink="http://www.w3.org/1999/xlink"><defs><linearGradient gradientTransform="scale(32)" gradientUnits="userSpaceOnUse" id="a" x1="0" x2="1" y1="1" y2="0"><stop offset="0" style="stop-color:rgb(74.117649%,3.137255%,8.627451%);stop-opacity:1"/><stop offset="1" style="stop-color:rgb(100%,32.156864%,32.156864%);stop-opacity:1"/></linearGradient></defs><path d="M0 0h32v32H0z" style="fill:url(#a);stroke:none"/><path d="M18 17.176c-.016.941-.305 2.039-1.5 2.277v-6.539l1.5.625Zm-4-.008v-3.629l1.5-.625v6.531c-1.379-.293-1.5-1.78-1.5-2.277m1.809-5.465-2.5 1.04a.501.501 0 0 0-.309.46v3.965c0 1.539.785 3.332 3 3.332 1.844 0 2.965-1.234 3-3.316v-3.98c0-.2-.121-.384-.309-.462l-2.5-1.039a.5.5 0 0 0-.382 0M20 17.183c0 .176-.047 4.317-4 4.317-3.937 0-4-4.152-4-4.332v-4.965l4-1.66 4 1.66Zm.691-5.777-4.5-1.867a.5.5 0 0 0-.382 0l-4.5 1.867a.503.503 0 0 0-.309.465v5.297c0 1.848 1.047 5.332 5 5.332 3.953 0 5-3.477 5-5.316V11.87a.503.503 0 0 0-.309-.465M26 17.56l-1.215-.07a.507.507 0 0 0-.515.39 8.368 8.368 0 0 1-1.094 2.64.5.5 0 0 0 .09.641l.906.809-2.203 2.203-.805-.902a.497.497 0 0 0-.64-.09 8.49 8.49 0 0 1-2.645 1.097.492.492 0 0 0-.39.516l.07 1.207H14.44l.07-1.21a.497.497 0 0 0-.39-.517 8.344 8.344 0 0 1-2.644-1.097.496.496 0 0 0-.637.09l-.809.906-2.203-2.203.906-.805a.506.506 0 0 0 .09-.64 8.49 8.49 0 0 1-1.097-2.645.51.51 0 0 0-.516-.39L6 17.558V14.44l1.215.07a.52.52 0 0 0 .515-.386 8.43 8.43 0 0 1 1.098-2.64.5.5 0 0 0-.09-.641l-.91-.813 2.203-2.203.813.91c.16.184.433.219.636.09a8.368 8.368 0 0 1 2.641-1.094.497.497 0 0 0 .39-.515L14.442 6h3.118l-.07 1.219a.495.495 0 0 0 .39.515 8.532 8.532 0 0 1 2.637 1.094.497.497 0 0 0 .64-.09l.813-.91 2.203 2.203-.91.809a.506.506 0 0 0-.09.64 8.36 8.36 0 0 1 1.098 2.645.512.512 0 0 0 .515.387l1.215-.07Zm.844-4.008a.511.511 0 0 0-.371-.137l-1.332.074a9.377 9.377 0 0 0-.903-2.175l.996-.887a.512.512 0 0 0 .168-.36.489.489 0 0 0-.148-.367L22.3 6.746a.508.508 0 0 0-.727.02l-.89 1a9.348 9.348 0 0 0-2.172-.903l.074-1.336a.49.49 0 0 0-.137-.37.493.493 0 0 0-.363-.157h-4.172a.493.493 0 0 0-.363.156.49.49 0 0 0-.137.371l.074 1.336a9.435 9.435 0 0 0-2.175.899l-.887-.996a.508.508 0 0 0-.727-.02L6.746 9.7a.489.489 0 0 0-.148.367.512.512 0 0 0 .168.36l.996.886a9.623 9.623 0 0 0-.903 2.176l-1.332-.074a.505.505 0 0 0-.37.137.493.493 0 0 0-.157.363v4.172c0 .137.055.27.156.363a.511.511 0 0 0 .371.137l1.328-.074c.207.761.512 1.492.903 2.18l-.992.882a.504.504 0 0 0-.02.73l2.953 2.95a.48.48 0 0 0 .367.148.528.528 0 0 0 .36-.168l.883-.992a9.417 9.417 0 0 0 2.18.906l-.075 1.325a.49.49 0 0 0 .137.37.493.493 0 0 0 .363.157h4.172c.137 0 .27-.055.363-.156a.49.49 0 0 0 .137-.371l-.074-1.325a9.417 9.417 0 0 0 2.18-.906l.882.992c.094.102.223.16.36.168.14.008.273-.05.367-.148l2.953-2.95a.496.496 0 0 0-.02-.727l-.996-.886a9.238 9.238 0 0 0 .903-2.18l1.332.075a.511.511 0 0 0 .37-.137.493.493 0 0 0 .157-.363v-4.172a.493.493 0 0 0-.156-.363m0 0" style="stroke:none;fill-rule:evenodd;fill:rgb(100%,100%,100%);fill-opacity:1"/></svg>
